X:1
T:Beauty and the Beast
T:Beauty and the Beast
%%score ( 1 2 ) { ( 3 5 ) | ( 4 6 ) }
L:1/8
Q:1/4=84
M:4/4
K:F
V:1 treble nm="Violin" snm="Vln."
V:2 treble 
V:3 treble nm="Piano" snm="Pno."
V:5 treble 
V:4 bass 
V:6 bass 
V:1
 z8 | z8 | z8 | z8 || z4 Acef | B8 | z4 Acef | g6 z2 | z4 fgab | c'4 c'bag | f4 bagf | %11
 d{/c}d/c/- c6 ||[K:D] z4 FAcd | G8 | z4 FAcd | e4 fefa | d4 dcdf | G4 [fa][gb] [eg]2 | %18
 [fa][eg]/[df]/ [df]4 z2 | z4 [Bd][ce][df][eg] || [ea]8- | [ea]2 z2 [Bd][ce][df][eb] | a8- | %23
 a2 z2 [Bd][ce][df][eg] | [ea]2 z3/2 [da]/ [fa][eg] [df][ce]/[df]/ | [Bd]2 z2 [Bf]>[cg] [da]>[Bf] | %26
 [eg]8 | ag/f/ fe/d/ dc/B/ A2 | z8 | z4 d'/c'/b/c'/ ba- | a4 z4 | z4 b/c'/(3b/a/f/ e/f/e- | e4 z4 | %33
 z8 | z8 | z4 [Bd][ce][df][eg] | [ea]8 | z2 z g gf b2 | ba/a/- a6 | z4 [Bd][ce][df][eg] | %40
 [ea]3 z/ f/ b>d' d'b | d'/b/a/f/ d z [df][eg][fa][df] | [eg]8 | z8 ||[K:G] z4 Bd f2- | fg c2 z4 | %46
 z4 e'bd'b | d'/c'/b/a/- a2- a/g/b- b2 | z4 [Bg][da][gb][ac'] | [bd']2 z2 gfed | %50
 [Bg]3 z [ac'][gb][fa][eg] | [dg]4 z4 ||[K:E] z4 GBde | A4 f>f f2- | f/e/ e2 z e>B g>e | %55
 f4 bg/f/ g/f/g | g/f/ e2 z c>B c>e | A4 [Bg][ca] [Af]2 | [Bg]/[Af]/[Ge] [Ge]6 | z4 gfgb | %60
 e4 e>d e>g | A4 [Bg][ca][Af]!fermata![Bg] | [Ge]8 | z8 | z8 | z8 | z8 |[M:5/4] z10 | %68
[M:4/4] z4 [gb][fc'][ea]!fermata![db] | [eg]8- | [eg]2 z2 z4 | z8 |] %72
V:2
 x8 | x8 | x8 | x8 || x8 | x8 | x8 | x8 | x8 | x8 | x8 | x8 ||[K:D] x8 | x8 | x8 | x8 | x8 | x8 | %18
 x8 | x8 || x8 | x8 | e4 e>d f{/e}f | d/B/d x6 | x8 | x8 | x8 | x8 | x8 | x8 | x8 | x8 | x8 | x8 | %34
 x8 | x8 | x8 | x8 | x8 | x8 | x8 | x8 | x8 | x8 ||[K:G] x8 | x8 | x8 | x8 | x8 | x4 e'd' bb/a/ | %50
 x8 | x8 ||[K:E] x8 | x8 | x8 | x8 | x8 | x8 | x8 | x8 | x8 | x8 | x8 | x8 | x8 | x8 | x8 | %67
[M:5/4] x10 |[M:4/4] x8 | x8 | x8 | x8 |] %72
V:3
 z2 z A,- A,CEF | B,3 z [ca][db][Bg][ca] | [Af]4- [Af]CEF | B,3 z [ca][db][Bg][ca] || [Af]6 [CF]2 | %5
 [B,F]3 z ABGA | [A,F]3 A,- A,2 [CF]2 | [B,D]4 [CA][DB][B,G][CA] | [A,F]3 z z4 | c8 | %10
 [DF]3 [CF]- [CF]4 | D[Ff][Bb][dd'] [ff']2 [ee']2 ||[K:D] [dd']8 | %13
 [G,B,]3 [dd'] [cc']>[Aa]- [Aa][Ee] | [Ff]4 z4 | [EG=ce]2 [Gceg]2 [FAdf]2 [Adfa]2 | %16
 [DFBd]4 [FBd]2 [Bdf]2 | [B,EG]4 [A,CFA]4 | [DFA]4 [Af][Bg][Ge][Af] | [Fd]4 z4 || [EA]6 [Fd]2 | %21
 [Ec]2 [DB]2 [B,D]4 | [A,E]6 [DB]2 | [DA]2 [B,F]2 z4 | [CEA]4 [DAd]2 [CAc]2 | [DF]4 DEFD | %26
 [DE]3 [E=c]- [Ec]4 | [B,DA]3 [B,DA]- [B,DA]2 [B,DA]2 | [Dd]4 [Ff][Aa][cc'][dd'] | %29
 [GBdg]3 [DB] [Fd]3/2[Ec]3/2[CA] | [A,DF]4 [Ff][Aa][cc'][dd'] | [egbe']3 c/d/ [Bde]2 [^Ace]2 | %32
 [A,DF]4 [Dd][Ee][Ff][Gg] | [Acea]3 [dad'] [dad']2 [cac']2 | [ceac']3 [Bdgb]- [Bdgb]4 | %35
 [B,DA]4 [B,D]4 | [CEA]4- [CEA]3 [Fd] | [Ec]2 [DB]4 F2 | [CEA]4 [DAd]4 | [ABda]8 | %40
 [CEA]4 [Aa][Gg][Ff][Ee] | [DFd]8 | [=CE]2{/d} [=ce]G{/d} [ce]G{/d}[ce]G | %43
 [EG=ce]2 z [=FAc=f]- [FAcf] z !fermata![Gceg]2 ||[K:G] [B,d-]8 | [Cd]3 [Gg] [Ff]>[Dd]- [Dd][A,A] | %46
 [B,B]4 B,DFG | [CEA]4 CB,/C/ DA, | B,4 [B,G]4 | [DFd]4 [^DF]4 | [EG]3 [DF] [CE]4 | %51
 [CD]3 G [CEG]2 [CDF]2 ||[K:E] [G,B,E]4 [G,B,E]4 | A,3 [Ee] [Dd]>[B,B]- [B,B][A,A] | [B,GB]8 | %55
 [A,=DA]4 [G,DG]4 | [G,C]4 [G,CE]2 [G,D]2 | [G,C]4 [A,CE]4 | z4 gafg | E6 D2 | [Ec]4 C2 [B,E]2 | %61
 !fermata![A,CE]8 | [G,B,E]4 G,B,DE | A,3 [ee'] [dd']>[Bb]- [Bb][Ff] | [Gg]4 G,B,DE | %65
 [A,F]3 [ee'] [dd']>[Bb]- [Bb][Aa] | [Bb]6 de |[M:5/4] fgedef [Fd]2 [^E=d]2 | %68
[M:4/4] [Ec]4 CFE!fermata![DG] |{/F} G3 G, B,FGB |{/f} g8 | z8 |] %72
V:4
 F,,C,G, z z4 | F,,D,F,B,- B,2 [E,C]2 | F,,C,G,A,- A,4 | F,,D,F,B,- B,2 [E,C]2 || F,,C,G,A,- A,4 | %5
 F,,D,F,B,- B,G, C,2 | F,,C,G, z z4 | [F,,G,]8 | F,,C,G,A,- A,4 | G,4 F,4 | [B,,F,]8 | [C,B,]8 || %12
[K:D] [D,F,A,]3 [D,,D,] [D,,D,]4 | [D,,D,]3 [D,,D,] [D,,D,]4 | [D,,D,]3 [D,,D,] [D,,D,]4 | %15
 [D,,D,]3 [D,,D,] [D,,D,]2 [F,,F,]2 | [G,,G,]4 [G,,G,]2 [F,,F,]2 | [E,,E,]4 [A,,,A,,]4 | %18
 [D,,D,]3 [D,,D,] [D,,D,]2 [A,,,A,,]2 | [D,,,D,,]4 z4 || [F,,F,]3 [F,,F,] [F,,F,]4 | %21
 [G,,G,]3 [G,,G,] [G,,G,]2 [A,,A,]2 | [F,,F,]3 [F,,F,] [F,,F,]4 | %23
 [G,,G,]3 [G,,G,] [G,,G,]2 [A,,A,]2 | [F,,F,]3 [F,,F,] [F,,F,]4 | B,,3 B,, B,,4 | [=C,G,]3 C, C,4 | %27
 A,,3 A,, A,,2 A,,2 | [D,F,A,]3 [D,,D,] [D,,D,]4 | [D,,D,]3 [D,,D,] [D,,D,]4 | %30
 [D,,D,]3 [D,,D,] [D,,D,]4 | D,,3 E,,/F,,/ G,,3 F,, | [B,,,B,,]3 [B,,,B,,] [B,,,B,,]4 | %33
 [F,,F,]3 [F,,F,]- [F,,F,] [F,,F,]3 | [G,,G,]3 [G,,G,] [G,,G,]2 [G,,G,]2 | A,,2 A,,2 A,,4 | %36
 [F,,F,]3 [F,,F,] [F,,F,]4 | [G,,G,]3 [G,,G,] [G,,G,]4 | [F,,F,]3 [F,,F,] [F,,F,]4 | %39
 [G,,G,]3 [G,,G,] [G,,G,]4 | [F,,F,]3 [F,,F,] [F,,F,]4 | [B,,B,]3 [B,,B,] [B,,B,]4 | [=C,=C]8 | %43
 [^A,,,^A,,]2 z [=A,,,=A,,]- [A,,,A,,] z !fermata![D,,D,]2 ||[K:G] G,,3 G,, G,,4 | G,,3 G,, G,,4 | %46
 G,,3 G,, G,,4 | G,,3 G,, G,,4 | G,,3 G,, G,,4 | B,,3 B,, B,,4 | [E,B,]3 [D,A,] [C,G,]4 | %51
 D,2 D,2 [D,,D,][D,,D,][D,,D,][D,,D,] ||[K:E] E,,3 E,, E,,4 | E,,3 E,, E,,4 | E,,3 E,, E,,4 | %55
 [B,,,B,,]3 [B,,,B,,] E,2 E,,2 | A,,3 A,, A,,2 C,2 | [F,,,F,,]4 [B,,,B,,]4 | %58
 [E,,E,]F,G,B, E2 [D,B,]2 | C,3 C, C,2 B,,2 | A,,3 A,, A,,2 G,,2 | F,,4 !fermata!B,,4 | %62
 E,,3 E,, E,,4 | E,,3 E,, E,,4 | E,,3 E,, E,,4 | [E,,C,]3 A, C2 [B,D]2 | [E,G,E]E,G,B, E,2 z2 | %67
[M:5/4] [^A,CE]2 [=A,=CF]2 [G,B,E]2 [C,B,]2"^rit." C,2 | %68
[M:4/4] !arpeggio![F,,A,]2 C,F, F,,3 !arpeggio!!fermata![B,,A,] | E,,8- | E,,8 | .E,, z z2 z4 |] %72
V:5
 x8 | x8 | x8 | x8 || x8 | x8 | x8 | x8 | x8 | G4 F4 | x8 | x8 ||[K:D] x8 | x8 | x8 | x8 | x8 | %17
 x8 | x8 | x8 || x8 | x8 | x8 | x8 | x8 | x8 | x8 | x8 | x8 | x8 | x8 | x8 | x8 | x8 | x8 | x8 | %36
 x8 | x8 | x8 | x8 | x8 | x8 | x8 | x8 ||[K:G] x8 | x8 | x8 | x8 | x8 | x4 B2 A2 | x8 | x8 || %52
[K:E] x8 | x8 | x8 | x8 | G3 E- x4 | x8 | x8 | e2 G2- G3 B | x8 | x8 | x8 | x8 | x8 | x8 | x8 | %67
[M:5/4] x10 |[M:4/4] x8 | x8 | x8 | x8 |] %72
V:6
 x8 | x8 | x8 | x8 || x8 | x8 | x8 | x8 | x8 | A,,8 | x8 | F,6 z2 ||[K:D] x8 | x8 | x8 | x8 | x8 | %17
 x8 | x8 | x8 || x8 | x8 | x8 | x8 | x8 | A,8 | x8 | G,8 | x8 | x8 | x8 | x8 | x8 | x8 | x8 | G,8 | %36
 x8 | x8 | x8 | x8 | x8 | x8 | x8 | x8 ||[K:G] D,8 | E,6 F,2 | D,8 | E,8 | D,8 | A,8 | x8 | %51
 G,4 x4 ||[K:E] B,,8 | C,8 | B,,8 | x8 | x8 | x8 | x8 | G,8 | E,8 | x8 | B,,8 | C,8 | B,,8 | x8 | %66
 x8 |[M:5/4] x10 |[M:4/4] x8 | z B,,E, x5 | x8 | x8 |] %72

